X:1
T:My God, my God - Blow
T:James Gibb editions
T:#
%%score [ 1 2 3 4 ]
L:1/8
Q:1/4=100
M:none
K:C
V:1 treble nm="Soprano" snm="S"
V:2 treble nm="Alto" snm="A"
V:3 treble-8 nm="Tenor" snm="T."
V:4 bass nm="Bass" snm="B."
V:1
"^Psalm 22:1-3""^My God, my God, look upon me""^John Blow\n(1649-1708)" z16 | z16 | z16 | %3
w: |||
 A8 c4 c4 | B4 e6 e2 d4 | e4 A2 B2 (^c2 d2) (e2 f2) | d6 G2 A8 | E8 F4 F4 | E4 A6 A2 G4 | %9
w: My God, my|God, look up- on|me, why hast thou * for\- *|sa- ken me?|My God, my|God, look up- on|
 A4 A4 ^G4 A4 | B4 e6 e2 d4 | e12 (e4- | e2 d2) (f2 e2) (e2 d2) c4 | (c4 B3) A A8 | z16 | %15
w: me, my God, my|God, look up- on|me, why|* * hast * thou * for-|sa\- * ken me?||
 z4 A4 _B4 B4 | A4 d6 d2 c4 | d4 e2 f2 ^c4 d4 | e6 e2 e8 | z4 B4 c4 c4 | B4 e6 e2 d4 | %21
w: My God, my|God, look up- on|me, why hast thou for-|sa- ken me,|My God, my|God, look- up- on|
 e4 B6 B2 B2 B2 | B6 A2 B4 c4- | c2 B2 d2 c2 (c4 B2) B2 | B2 B2 c2 d2 e4 d2 B2 | %25
w: me, why hast thou for-|sa- ken me, why|* hast thou for- sa\- * ken|me? and art so far from my|
 c4 d2 e2 A4 B2 c2 | d4 c4 B2 c2 A3 G | G6 (^FE) E2 F2 G2 A2 | B4 A2 ^F2 G4 A2 B2 | %29
w: health, art so far from my|health and from the words of|my com\- * plaint, and art so|far from my health, art so|
"^4" E4 ^F2 ^G2 A2 A2 A2 =G2 | =F4 (G2 F2) (F4 E2) D2 | D8 z8 | z4 E4 F4 F4 | E2 E2 (A8 G4) | %34
w: far from my health and from the|words of * my * com-|plaint.|O God, my|God, I cry *|
 A6 d2 B4 e4- | e2 e2 d4 e4 e4 | (d4 ^c4) d6 e2 | ^c4 =c6 d2 _B4 | A4 z4 z8 | z4 e2 e2 d4 B4 | %40
w: un- to thee in|* the day time, I|cry * un- to|thee in the day-|time,|and thou hear- est|
 A8 z4 A4 | A2 G2 c4 c2 B2 c4 | c2 B2 e4 e2 ^d2 e4 | e4 ^d4 e4 B4 | c6 B2 A2 B2 c4 | c4 G4 z4 d4 | %46
w: not, and|in the night sea- son, and|in the night sea- son I|take no rest. And|thou con- ti- nu- est|ho- ly, and|
 e6 d2 c2 d2 e4 | e4 B4 z4 A4 | z4 B8 A4 | G4 ^F2 F2 (G4 F3) E | E8 z8 | z16 | z16 | A8 c4 c4 | %54
w: thou con- ti- nu- est|ho- ly, O,|O thou|wor- ship of Is\- * ra-|el.|||My God, my|
 B4 e6 e2 d4 | e4 B6 c2 d4- | d4 c4 (c4 B2) B2 | B4 c8 B4- | %58
w: God look up- on|me, why hast thou|* for- sa\- * ken|me, why, why|
 B2[Q:1/4=99] c2[Q:1/4=95] d8[Q:1/4=90] c4 | %59
w: * hast thou for-|
[Q:1/4=88] (c4[Q:1/4=85] B3)[Q:1/4=84] A[Q:1/4=84] !fermata!A8 |] %60
w: sa\- * ken me?|
V:2
 z16 | z16 | z8 E8 | F4 F4 E4 A4- | A2 A2 ^G4 A4 A,2 B,2 | C4 C2 D2 E2 F2 G2 A2 | F4 D4 E4 F4 | %7
w: ||My|God, my God, look|* up- on me, why hast|thou, why hast thou, hast thou for-|sa- ken me? My|
 G4 A4 D4 D4- | D2 D2 ^C4 D4 G2 E2 | C4 D4 E6 E2 | E4 E4 F4 F4 | E4 G8 G2 F2 | E4 C3 D E6 E2 | %13
w: God, my God, look|* up- on me, why hast|thou for- sa- ken|me? My God, my|God, why, why hast|thou, why hast thou for-|
 E12 D4 | E4 E4 F4 F4 | E4 A6 A2 G4 | A8 z4 A4- | A2 A2 G6 E2 F2 D2 | B,4 B,2 C2 D2 B,2 E4- | %19
w: sa- ken|me? My God, my|God, look up- on|me, why|* hast thou for- sa- ken|me, why hast thou for sa\-|
 E4 ^D4 E8 | z4 E4 F4 F4 | E8 G4 ^F4 | E8 (E2 D2) (E2 F2) | E4 E4 E6 E2 | E8 z2 E2 ^F2 ^G2 | %25
w: * ken me?|My God, my|God, why hast|thou, why * hast *|thou for- sa- ken|me? and art so|
 A4 =G2 E2 F2 ^F2 ^G2 A2 | ^G4 E2 ^F2 G4 (F2 E2) | (E4 ^D3) E E8 | z2 B,2 ^C2 ^D2 E4 =D2 B,2 | %29
w: far from my health and from the|words, from the words of *|my * com- plaint,|and art so far from my|
 C2 C2 D2 E2 A,4 B,2 ^C2 | D4 (E2 D2) (D4 ^C3) D | D4 D4 F4 F4 | E4 ^C4 D4 D4- | D4 ^C4 D4 E4- | %34
w: health and art so far from the|words of * my * com-|plaint. O God, my|God, I cry un\-|* to thee in|
 E2 E2 A4 ^G4 G4 | A8 ^G4 E4 | F4 F6 F2 G4 | E4 F6 F2 E4 | F4 F2 F2 E4 E4 | F4 A2 G2 F4 E4 | %40
w: * the day- time, I|cry un- to|thee in the day|time, in the day-|time, and thou hear- est|not and thou hear- est|
 E4 E4 E2 C2 F4 | F2 E2 A4 A2 G2 G4 | G2 G2 G4 ^F4 G4 | ^F6 E2 E8 | z4 E4 C6 C2 | C2 D2 E4 F8 | %46
w: not and in the night|sea- son, and in the night|sea- son al- so, I|take no rest.|And thou con-|ti- nu- est ho-|
 E4 E4 E6 E2 | E2 F2 G4 A4 A4 | z4 G8 ^F4 | ^F2 E2 E4 (E4 ^D3) E | E8 z8 | z16 | z8 E8 | %53
w: ly, and thou con-|ti- nu- est ho- ly,|O thou|wor\- * ship of~Is\- * ra-|el.||My|
 F4 F4 E4 A4- | A2 A2 ^G4 A8 | z4 G8 F4 | F4 E4 E6 E2 | E8 E2 ^F2 G4- | G4 F4 F4 E4 | %59
w: God, my God look|* up- on me,|why hast|thou for- sa- ken|me, why hast thou,|* hast thou for-|
 E6 E2 !fermata!E8 |] %60
w: sa- ken me?|
V:3
 z16 | z8 B8 | c4 c4 B4 e4- | e2 e2 d4 e4 c2 d2 | (e2 d2) (c2 B2) (A2 G2) F4 | E4 F4 E4 A4- | %6
w: |My|God, my God, look|* up- on me, why hast|thou * for\- * sa\- * ken|me? My God, look|
 A2 A2 d4 ^c4 (d2 =c2) | _B4 A4 A8 | A8 _B4 B4 | c4 d6 d2 c4 | B4 B6 c2 A4 | ^G4 B8 A2 A2 | %12
w: * up- on me, look *|up- on me.|My God, my|God look up- on|me, look up- on|me, why, why hast|
 ^G4 A4 B4 A4 | (A4 ^G3) A A4 A4 | c4 c4 B4 d4- | d2 d2 ^c4 d4 e4 | f4 f4 e4 e4- | e2 f2 d4 e4 A4 | %18
w: thou, hast thou for-|sa\- * ken me? My|God, my God, look|* up- on me. My|God, my God look|* up- on me, why,|
 ^G6 A2 B4 c4 | (G4 ^F3) E E8 | z16 | (E2 ^F2) (G2 A2) (B2 c2) (d2 cB) | c6 c2 B4 A4- | %23
w: why hast thou for-|sa\- * ken me?||why * hast * thou * for\- * *|sa- ken me, why|
 A2 ^G2 B2 A2 (A4 !courtesy!^G2) G2 | ^G8 z8 | z2 A2 B2 c2 d4 c2 A2 | B2 B2 c2 d2 e4 A4 | %27
w: * hast thou for- sa\- * ken|me?|and art so far from my|health and from the words of|
 B6 B2 E8 | z8 z2 E2 ^F2 ^G2 | A4 =G2 E2 =F2 F2 G2 A2 | _B4 G4 A8- | A4 G4 A8 | z16 | %33
w: my com- plaint,|and art so|far from my health and from the|words of my|* com- plaint.||
 z4 A4 _B4 B4 | A4 A4 e6 (d2 | c2 B2) A4 B2 ^G2 c4- | c2 (B2 A8) G4 | A4 A6 _B2 G4 | %38
w: My God, My|God, I cry un\-|* * to thee, I cry|* un\- * to|thee in the day-|
 F4 d2 d2 d4 ^c4 | d4 A4 A4 ^G4 | A8 A4 A2 F2 | c4 c2 A2 z4 e4 | e2 d2 B4 B4 B2 B2 | c4 B4 B8 | %44
w: time, and thou hear- est|not, thou hear- est|not, and in the|night sea- son, and|in the night sea- son I|take no rest.|
 z4 ^G4 A6 A2 | A2 B2 c4 c4 B4 | z4 c4 c6 c2 | c2 d2 e4 e4 d4 | z4 e8 ^d4 | e4 c2 c2 B6 B2 | %50
w: And thou con-|ti- nu- est ho- ly,|and thou con-|ti- nu- est ho- ly,|O thou|wor- ship of Is- ra-|
 E8 z8 | z8 B8 | c4 c4 B4 e4- | e2 e2 d4 e4 c2 d2 | (e2 d2) (c2 B2) (A2 G2) F4 | E8 B6 A2 | %56
w: el.|My|God, my God look|* up- on me, why hast|thou * for * sa\- * ken|me, why hast|
 ^G4 A4 (A4 G2) G2 | ^G4 A8 =G2 A2 | B6 A2 ^G4 A4 | (A4 ^G3) A !fermata!A8 |] %60
w: thou for- sa\- * ken|me, why, why hast|thou, hast thou for-|sa\- * ken me?|
V:4
 E,8 F,4 F,4 | E,4 A,6 A,2 ^G,4 | A,4 E,2 F,2 (G,2 E,2) ^C,4 | (D,2 E,2 F,2) D,2 A,8 | z16 | %5
w: My God, my|God, look up- on|me, why hast thou * for-|sa\- * * ken me?||
 z8 A,,8 | _B,,4 B,,4 A,,4 D,4- | D,2 D,2 ^C,4 D,4 F,2 G,2 | (A,2 G,2) (F,2 E,2) D,4 E,4 | %9
w: My|God, my God, look|* up- on me, why hast|thou * for\- * sa- ken|
 F,4 F,4 E,4 A,4- | A,2 A,2 ^G,4 A,4 F,4 | z4 E,2 F,2 G,4 C,2 D,2 | E,4 A,,4 E,6 E,2 | %13
w: me? My God, look|* up- on me, why,|why hast thou, why hast|thou for- sa- ken|
 E,4 E,4 F,4 F,4 | E,4 A,6 A,2 ^G,4 | A,8 z8 | (D,2 E,2) (F,2 G,2) (A,2 =B,2) (C2 _B,A,) | %17
w: me? My God, my|God look up- on|me,|why * hast * thou * for\- * *|
 _B,6 B,2 A,4 F,4 | z4 E,2 A,,2 ^G,,4 A,,4 | B,,6 B,,2 E,,4 E,4 | G,4 G,4 F,8 | z16 | %22
w: sa- ken me, why,|why hast thou for-|sa- ken me? My|God, my God||
 z4 E,2 ^F,2 G,4 C,2 D,2 | E,4 A,,4 E,6 E,2 | E,8 z8 | z16 | z16 | z4 B,,4 C,4 C,4 | B,,8 z8 | %29
w: why hast thou, why hast|thou for- sa- ken|me?|||My God, my|God|
 z16 | z8 z4 A,,4 | _B,,4 B,,4 A,,4 D,4 | A,6 (G,2 F,2 E,2) D,4 | A,4 A,,4 D,4 G,4 | F,8 z4 E,4 | %35
w: |O|God, my God, I|cry un\- * * to|thee in the day-|time. O|
 F,4 F,4 E,4 C,4 | F,6 (E,2 D,2 C,2) _B,,4 | A,,4 F,6 _B,,2 C,4 | F,,4 F,2 F,2 G,4 A,4 | %39
w: God, my God I|cry un\- * * to|thee in the day-|time, and thou hear- est|
 D,4 C,4 D,4 E,4 | A,,8 z8 | z8 E,4 E,2 C,2 | G,4 G,2 E,2 B,4 B,2 G,2 | A,4 B,4 E,8 | %44
w: not, thou hear- est|not,|and in the|night sea- son al- so, I|take no rest.|
 z4 E,4 F,6 F,2 | F,2 F,2 E,4 D,8 | C,4 A,4 A,6 A,2 | A,2 A,2 G,4 F,4 F,4 | z4 E,8 ^F,4 | %49
w: And thou con-|ti- nu- est ho-|ly, and thou con-|ti- nu- est ho- ly,|O thou|
 G,4 A,2 A,2 B,3 B, B,4 | z4 E,4 F,4 F,4 | E,4 A,6 A,2 ^G,4 | A,4 E,2 F,2 (G,2 E,2) ^C,4 | %53
w: wor- ship of Is- ra- el.|My God, my|God, look up- on|me, why hast thou * for-|
 (D,2 E,2 F,2) D,2 A,8 | z16 | z4 E,8 D,4 | B,,4 (C,2 D,2) E,6 E,2 | E,8 z4 E,4- | %58
w: sa\- * * ken me,||why hast|thou for * sa- ken|me, why|
 E,4 D,4 B,,4 (C,2 D,2) | E,6 E,2 !fermata!A,,8 |] %60
w: * hast thou for *|sa- ken me?|

